X:215
T:Spring & Winter - Mortimore
%%VWML:SBG-1-2-212-0
F:http://www.vwml.org/record/SBG/1/2/212
Z:Original Sibelius transcriptions by M. & S. Graebe
M:4/4
I:linebreak $
K:Eb
V:1 treble nm="P1"
V:1
 E3 G>A | B2 c>d | e>f ec | c2 B>G | A2 c>A | G2 E>G | F2 E>D | E8 B :|$ e2 d>e | f2 B3/2 B/ | %10
 e2 d>c | f2 B B | e2 g>f | e2 B3/2 A/ | c2 d>d | e3 E |$ E2 G>A | B2 c>d | e2 f>e | c2 B3/2 G/ | %20
 A2 c>A | G2 E3/2 E/ | F2 E>D | E4 | %24

